apps/common/mobile/resources/icons/common/icon-table-remove-row.svg

<svg width="24" height="24" viewBox="0 0 24 24" xmlns="http://www.w3.org/2000/svg">
<path d="M20.5 3.5459C21.4665 3.54591 22.25 4.32941 22.25 5.2959V18.2959C22.25 19.2624 21.4665 20.0459 20.5 20.0459H10.5605C10.4468 19.5679 10.2065 19.1141 9.83398 18.7412L9.63867 18.5459H14.75V15.0459H10.6367C10.6415 14.3366 10.3745 13.6262 9.83398 13.085L9.83301 13.084C8.75906 12.0101 7.01728 12.0101 5.94336 13.084L5.05957 13.9678L4.17578 13.084C3.77129 12.6795 3.27245 12.4269 2.75 12.3271V5.2959C2.75 4.3294 3.53351 3.5459 4.5 3.5459H20.5ZM20.75 15C20.6715 15.0279 20.588 15.0459 20.5 15.0459H16.25V18.5459H20.5C20.638 18.5459 20.75 18.4339 20.75 18.2959V15ZM4.5 5.0459C4.36193 5.0459 4.25 5.15783 4.25 5.2959V8.54492H8.75V5.0459H4.5ZM10.25 8.54492H14.75V5.0459H10.25V8.54492ZM16.25 8.54492H20.75V5.2959C20.75 5.15783 20.6381 5.0459 20.5 5.0459H16.25V8.54492Z" fill="#444444"/>
<path fill-rule="evenodd" clip-rule="evenodd" d="M7.35846 14.498C7.65135 14.2051 8.12611 14.2051 8.41901 14.498C8.71149 14.7909 8.71176 15.2658 8.41901 15.5585L6.12115 17.8564L8.41901 20.1542C8.71172 20.4471 8.71168 20.9219 8.41901 21.2148C8.12615 21.5076 7.65136 21.5076 7.35846 21.2148L5.06061 18.9169L2.76178 21.2148C2.46895 21.5076 1.99414 21.5075 1.70123 21.2148C1.40859 20.9219 1.40842 20.447 1.70123 20.1542L4.00006 17.8564L1.70123 15.5585C1.40844 15.2657 1.40865 14.7909 1.70123 14.498C1.99413 14.2051 2.46889 14.2051 2.76178 14.498L5.06061 16.7958L7.35846 14.498Z" fill="#FF3B30"/>
</svg>

<svg xmlns="http://www.w3.org/2000/svg" width="24" height="24" fill="none" viewBox="0 0 24 24">
  <g class="icon-table-remove-row" clip-path="url(#a)">
    <path fill="#444" fill-rule="evenodd" d="M20.5 3.546c.966 0 1.75.783 1.75 1.75v13a1.75 1.75 0 0 1-1.75 1.75h-9.94a2.732 2.732 0 0 0-.726-1.305l-.195-.195h5.111v-3.5h-4.113a2.739 2.739 0 0 0-.803-1.961l-.001-.001a2.75 2.75 0 0 0-3.89 0l-.883.884-.884-.884a2.737 2.737 0 0 0-1.426-.757V5.296c0-.967.784-1.75 1.75-1.75h16ZM20.75 15a.744.744 0 0 1-.25.046h-4.25v3.5h4.25a.25.25 0 0 0 .25-.25V15ZM4.5 5.046a.25.25 0 0 0-.25.25v3.249h4.5v-3.5H4.5Zm5.75 3.499h4.5v-3.5h-4.5v3.5Zm6 0h4.5v-3.25a.25.25 0 0 0-.25-.25h-4.25v3.5Z" class="icon-fill-gray-primary" clip-rule="evenodd"/>
    <path fill="#FF3B30" d="M8.42 15.558a.75.75 0 0 0-1.061-1.06L5.06 16.796l-2.299-2.298a.75.75 0 1 0-1.06 1.06L4 17.857l-2.298 2.298a.75.75 0 1 0 1.06 1.06l2.299-2.297 2.298 2.297a.75.75 0 0 0 1.06-1.06l-2.298-2.298 2.298-2.299Z" class="icon-fill-red"/>
  </g>
  <defs>
    <clipPath id="a" class="a">
      <path fill="#fff" d="M0 0h24v24H0z"/>
    </clipPath>
  </defs>
</svg>
